src/svg/window-restore.svg

<svg height="1000" width="1000.0" xmlns="http://www.w3.org/2000/svg">
    <path d="m1000 93.8v562.5c0 51.7-42 93.7-93.7 93.7h-93.8v-406.2c0-86.2-70.1-156.3-156.2-156.3h-406.3v-93.7c0-51.8 42-93.8 93.8-93.8h562.5c51.7 0 93.7 42 93.7 93.8z m-250 250v562.5c0 51.7-42 93.7-93.7 93.7h-562.5c-51.8 0-93.8-42-93.8-93.7v-562.5c0-51.8 42-93.8 93.8-93.8h562.5c51.7 0 93.7 42 93.7 93.8z m-132.8 54.6c0-12.9-10.6-23.4-23.4-23.4h-445.4c-12.9 0-23.4 10.5-23.4 23.4v101.6h492.2v-101.6z" />
  </svg>

<svg height="1000" width="1000" xmlns="http://www.w3.org/2000/svg"><path d="M1000 93.8v562.5c0 51.7 -42 93.7 -93.7 93.7h-93.8V343.8c0 -86.2 -70.1 -156.3 -156.2 -156.3H250V93.8C250 42 292 0 343.8 0h562.5C958 0 1000 42 1000 93.8zm-250 250v562.5c0 51.7 -42 93.7 -93.7 93.7H93.8C42 1000 0 958 0 906.3V343.8C0 292 42 250 93.8 250h562.5c51.7 0 93.7 42 93.7 93.8zm-132.8 54.6c0 -12.9 -10.6 -23.4 -23.4 -23.4H148.4c-12.9 0 -23.4 10.5 -23.4 23.4V500h492.2V398.4z"/></svg>
